storage/app/icons/phosphoricons/light/chalkboard-light.svg

<svg xmlns="http://www.w3.org/2000/svg" fill="currentColor" viewBox="0 0 256 256"><path d="M240 194h-10V56a14 14 0 0 0-14-14H40a14 14 0 0 0-14 14v138H16a6 6 0 0 0 0 12h224a6 6 0 0 0 0-12M38 56a2 2 0 0 1 2-2h176a2 2 0 0 1 2 2v138h-20v-26a6 6 0 0 0-6-6h-72a6 6 0 0 0-6 6v26H70V86h116v50a6 6 0 0 0 12 0V80a6 6 0 0 0-6-6H64a6 6 0 0 0-6 6v114H38Zm148 138h-60v-20h60Z"/></svg>

<svg xmlns="http://www.w3.org/2000/svg" viewBox="0 0 256 256" fill="currentColor"><path d="M240,194H230V56a14,14,0,0,0-14-14H40A14,14,0,0,0,26,56V194H16a6,6,0,0,0,0,12H240a6,6,0,0,0,0-12ZM38,56a2,2,0,0,1,2-2H216a2,2,0,0,1,2,2V194H198V168a6,6,0,0,0-6-6H120a6,6,0,0,0-6,6v26H70V86H186v50a6,6,0,0,0,12,0V80a6,6,0,0,0-6-6H64a6,6,0,0,0-6,6V194H38ZM186,194H126V174h60Z"/></svg>
